X:1
T:Go Tell Your Story to Jesus
T:J. E. Sturgis
T:Go Tell Your Story to Jesus
T:Public Domain
T:Public Domain
T:Public Domain
C:J. E. Sturgis
Z:Public Domain
%%score ( 1 2 ) ( 3 4 )
L:1/8
M:6/8
K:Eb
V:1 treble 
V:2 treble 
V:3 bass 
V:4 bass 
V:1
 [EG]/[FA]/ | [GB][Gc][GB] E[B,D][B,E] | (A2 ^C) [DA]2 ([FA]/[EG]/) | %3
w: 1.~When your|heart with life’s bur- dens is|y, * And~the path- *|
w: 2.~“Come to|Me” is the kind in- vi-|tion * Of Je- *|
w: 3.~When the|tri- als of life are all|ed, * When~you reach *|
 [DF][^C=E][DF] [DB][DF][D^F] | [EG]3- [EG]2 [EG]/[FA]/ | [GB][Gd][Gd] [Ge][GB][EG] | %6
w: a- round you is drear, There|is * one who|is al- ways be- side you,|
w: your Sav- ior and Lord; Lean|on * Him, there|is rest in His bo- som,|
w: glad home of the blest, You|will * dwell in|the glo- ry with Je- sus,|
 [DF]3 [FB]2 [Fd] | [Fc][Fd][Fe] [E=A][DB][Ec] | (D2 E [FB]2) z || %9
w: Your cry of|dis- tress He will hear. Go|tell * *|
w: Find com- fort|in His ho- ly Word. *||
w: For- ev- er|with Him you will rest. *||
"^Refrain" [Ad][Ac][GB] [FA][^C=E][DF] | [Ac]3 [AB]3 | [EG][EF]E [EA]E[EF] | [EG]3- [EG]2 [EG] | %13
w: sto- ry to Je- sus, He|is your|Sav- ior and Guide; He came|bove, * in|
w: ||||
w: ||||
 [EB][DA][EG] [DF]2 [DF] | [FA][EG][DF] [CE]2 [EG] | [EF][E=A][Fc] [Fe][Fd][Ec] | %16
w: in- fi- nite love, To|save you on Cal- v’ry|He died; Trust- ing this gra-|
w: |||
w: |||
 ([DB-]3 [AB]2) z | [Ad][Ac][GB] [FA][^C=E][DF] | [Ac]3 [AB]3 | [EG][EF]E [EA]E(E/C/) | %20
w: cious *|Re- deem- er, You may your|cour- age|re- new; Go tell your sto- *|
w: ||||
w: ||||
 ([DG]3 [AB]3) | [Ge][Ge][Ge] [EG][DA][EB] | [Ed]3 [Ec]3 | [EB][Ee][EG] [DB][DA][DFf] | %24
w: sus, *|Find out how much He loves|you. *||
w: ||||
w: ||||
 (z CC [B,Ee]2) |] %25
w: |
w: |
w: |
V:2
 x | x3 E x2 | D3 x3 | x6 | x6 | x6 | x6 | x6 | B3 x3 || x6 | x6 | x2 E E x2 | x6 | x6 | x6 | x6 | %16
w: |wear-|way||||||your|||from a-|||||
w: |ta-|sus,||||||||||||||
w: |end-|the||||||||||||||
 x6 | x6 | x6 | x2 E EF x | x6 | x6 | x6 | x6 | [Ee]3 x2 |] %25
w: |||ry to Je-||||||
w: |||||||||
w: |||||||||
V:3
 [E,B,]/[E,B,]/ | [E,E][E,E][E,E] [G,B,][F,A,][E,G,] | (F,2 =E,) [B,,F,]2 [B,,B,] | %3
w: ~ ~|~ ~ ~ ~ ~ ~|~ * ~ ~|
 [B,,B,][B,,B,][B,,B,] [B,,B,][B,,B,][B,,B,] | [E,B,]3- [E,B,]2 [E,B,]/[E,B,]/ | %5
w: ~ ~ ~ ~ ~ ~|~ * ~ ~|
 [E,E][E,E][E,E] [E,E][E,E][E,B,] | [F,B,]3 [F,D]2 [F,B,] | [F,E][F,D][F,C] [F,C][F,B,][F,=A,] | %8
w: ~ ~ ~ ~ ~ ~|~ ~ ~|~ ~ ~ ~ ~ ~|
 (F,2 G, [B,,A,]2) z || [B,,B,]3 [B,,B,]2 [B,,B,] | [B,,D][B,,D][B,,D] [B,,D]2 [B,,D] | %11
w: Go * *|* the sto-|ry to Je- sus, ~|
 [E,B,][E,A,][E,G,] [E,C][E,C][E,_C] | [E,B,][E,B,][E,B,] [E,B,]2 [E,B,] | %13
w: ~ ~ ~ ~ ~ Sav-|ior and Guide, ~ ~|
 [G,B,][F,B,][E,B,] [B,,B,]2 [B,,B,] | [B,,B,][B,,B,][=B,,A,] [C,G,]2 [C,C] | %15
w: ~ ~ ~ ~ ~|~ ~ ~ ~ ~|
 [F,C][F,C][F,=A,] [F,A,][F,A,][F,A,] | ([B,,-B,]3 [B,,D]2) z | [B,,B,]3 [B,,B,]2 [B,,B,] | %18
w: ~ ~ ~ ~ ~ ~|Trust- *|ing this gra-|
 [B,,D][B,,D][B,,D] [B,,D]2 [B,,D] | [E,B,][E,A,][E,G,] [E,C][A,C][A,C] | ([G,=B,]3 F,2 =B,,) | %21
w: cious Re- deem- er, ~|~ ~ ~ ~ ~ ~|~ * *|
 [E,B,][E,B,][E,B,] [E,B,][F,B,][G,B,] | A,3 [A,,A,]3 | %23
w: ~ ~ ~ ~ ~ ~|~ ~|
 [B,,G,][B,,G,][B,,B,] [B,,F,][B,,F,][B,,A,] | G,A,(A, [E,G,]2) |] %25
w: ~ ~ ~ He loves you.||
V:4
 x | x6 | B,,3 x3 | x6 | x6 | x6 | x6 | x6 | B,,3- x3 || x6 | x6 | x6 | x6 | x6 | x6 | x6 | x6 | %17
w: ||~||||||tell|||||||||
 x6 | x6 | x6 | x3 D3 | x6 | A,3 x3 | x6 | E,3 x2 |] %25
w: |||~||~|||

